svg/color/trx.svg

<svg width="64" height="65" viewBox="0 0 64 65" fill="none" xmlns="http://www.w3.org/2000/svg">
<rect y="0.303711" width="64" height="64" rx="32" fill="#FF0013"/>
<rect x="0.5" y="0.803711" width="63" height="63" rx="31.5" stroke="#070B14" stroke-opacity="0.15"/>
<mask id="mask0_11313_5443" style="mask-type:luminance" maskUnits="userSpaceOnUse" x="0" y="0" width="64" height="65">
<path d="M63.9574 0.303711H0V64.3037H63.9574V0.303711Z" fill="white"/>
</mask>
<g mask="url(#mask0_11313_5443)">
<path d="M50.7597 26.8505C48.8697 25.1055 46.2552 22.4405 44.1259 20.5506L43.9998 20.4625C43.7902 20.294 43.5537 20.162 43.3005 20.0717C38.1661 19.1141 14.2705 14.6476 13.8043 14.7043C13.6737 14.7226 13.5488 14.7699 13.4389 14.8429L13.3192 14.9374C13.1719 15.0871 13.0599 15.2679 12.9916 15.4666L12.9601 15.5485V15.9958V16.0651C15.6502 23.5556 26.2718 48.0938 28.3635 53.8519C28.4894 54.2426 28.7288 54.986 29.1761 55.0237H29.2769C29.5163 55.0237 30.5369 53.6756 30.5369 53.6756C30.5369 53.6756 48.7814 31.5503 50.6273 29.1941C50.8662 28.9039 51.0773 28.5917 51.2573 28.2617C51.3033 28.0036 51.2816 27.7378 51.1944 27.4905C51.1072 27.2433 50.9574 27.0228 50.7597 26.8505ZM35.2177 29.4273L43.0045 22.9698L47.5718 27.1781L35.2177 29.4273ZM32.1937 29.005L18.7875 18.018L40.4782 22.0185L32.1937 29.005ZM33.4033 31.8842L47.1246 29.6729L31.4377 48.5727L33.4033 31.8842ZM16.9669 19.1141L31.0725 31.0841L29.0312 48.5852L16.9669 19.1141Z" fill="white"/>
</g>
</svg>

<svg xmlns="http://www.w3.org/2000/svg" width="64" height="65" fill="none" viewBox="0 0 64 65"><rect width="64" height="64" y=".304" fill="#FF0013" rx="32"/><rect width="63" height="63" x=".5" y=".804" stroke="#070B14" stroke-opacity=".15" rx="31.5"/><mask id="trx_svg-a" width="64" height="65" x="0" y="0" maskUnits="userSpaceOnUse" style="mask-type:luminance"><path fill="#fff" d="M63.957.304H0v64h63.957z"/></mask><g mask="url(#trx_svg-a)"><path fill="#fff" d="M50.76 26.85c-1.89-1.745-4.505-4.41-6.634-6.3L44 20.463q-.317-.253-.7-.39c-5.134-.958-29.03-5.424-29.496-5.368a.9.9 0 0 0-.365.139l-.12.094c-.147.15-.26.33-.327.53l-.032.082v.517c2.69 7.49 13.312 32.028 15.403 37.786.126.39.366 1.134.813 1.172h.1c.24 0 1.26-1.348 1.26-1.348S48.782 31.55 50.628 29.194q.36-.436.63-.932a1.52 1.52 0 0 0-.497-1.412m-15.542 2.577 7.786-6.457 4.568 4.208zm-3.024-.422L18.787 18.018l21.691 4zm1.21 2.88 13.72-2.212-15.686 18.9zm-16.437-12.77 14.106 11.97-2.042 17.5z"/></g></svg>
